X: 2
T: Fleur De Mandragore
R: reel
M: 4/4
L: 1/8
K: Amaj
EGAE GABA|Aced cAAA|EGAE GABB-|BABd cAAA|
EGAE GABA|Aced cAAA|EGAE GABB-|1BABd cAAA:|2BABd cAAA Aceg||
|:a3A ~a2ga|bAaA ~g2ec|dfed cABc|dcde fefg|
a3A ~a2ga|bAaA ~g2ec|dfed cABc|dcBc BAA2:|


Tune 731	Setting 731

